!!!CDT:
!!!PTL: Terze musiche a una voce
!!!PPP: Venice
!!!PPR: Alessandro Vincenti
!!!PDT: 1620
!!!RISM: S 912
!!!rime: 433
!!!AGN: Madrigal
!!!SCT: Trm0433j
!!!SCA: Trm0433j
!!!voices:
!!!COM: Saracini, Claudio
!!!OTL: Se tu mi lasci, perfida e crudele (i.e., "Se tu mi lasci, perfida, tuo danno," Rime 433)
**kern	**fb	**kern	**text
*part2	*part2	*part1	*part1
*staff2	*staff2	*staff1	*staff1
*I"[Basso continuo]	*	*I"[Canto]	*
*I'Bc	*	*I'C	*
*oclefF4	*	*oclefC1	*
*clefF4	*	*clefG2	*
*k[]	*	*k[]	*
*C:	*	*C:	*
*omet(C)	*	*omet(C)	*
*M4/4	*	*M4/4	*
=1	=1	=1	=1
!!LO:TX:a:t=Intitolato Al Molto Illustre Signor Gio. Battista Rapani.
[1AA	n	1cc	Se
=2	=2	=2	=2
1AA]	.	2.b	tu
.	.	4a	mi
=3	=3	=3	=3
[1AA	.	1a	la-
=4	=4	=4	=4
1AA]	.	1a	-sci,
=5	=5	=5	=5
[1FF#X	.	2.dd	per-
.	.	4dd	-fi-
=6	=6	=6	=6
1FF#]	.	2.cc#X	-da e
.	.	4cc#i	cru-
=7	=7	=7	=7
[1GG#X	.	1b	-de-
=8	=8	=8	=8
1GG#]	.	1b	-le,
=9	=9	=9	=9
1GGnXi	-	8r	.
.	.	8b-X	Non
.	.	8b-i	ti
.	.	8b-i	pen-
.	.	4.b-i	-sar
.	.	8a	che
=10	=10	=10	=10
1FF	.	2cc	si-
.	.	2cc	-a
=11	=11	=11	=11
2.AA	.	8r	.
.	.	8cc#X	Mi-
.	.	8cc#i	-se-
.	.	8cc#i	-ra
.	.	8cc#i	sen-
.	.	8cc#i	-ta
4D	.	4dd	te,
=12	=12	=12	=12
1D	n	8r	.
.	.	8f	<Mi-
.	.	8f	-se-
.	.	8f	-ra
.	.	8f	sen-
.	.	8f	-za
.	.	4f	te>
=13	=13	=13	=13
[1AA	.	2.a	la
.	.	8f	vi-
.	.	8e	-ta
=14	=14	=14	=14
1AA]	.	1e	mi-
=15	=15	=15	=15
1D	.	1d	-a.
=16:|!|:	=16:|!|:	=16:|!|:	=16:|!|:
2.E	.	4g#X	Mi-
.	.	8g#i	-se-
.	.	8g#i	-ra
.	.	8g#i	ben
.	.	8g#i	sa-
[4C#X	.	4a	-re-
=17	=17	=17	=17
4C#]	.	4.a	-i
2.G#X	.	.	.
.	.	8b	Se
.	.	8b	mi-
.	.	8b	-se-
.	.	8b	-ria
.	.	8b	sti-
=18	=18	=18	=18
2G#X	.	2.b	-mas-
[2C#X	.	.	.
.	.	4a	-si e
=19	=19	=19	=19
1C#]	.	2.a	non
.	.	4e	ven-
=20	=20	=20	=20
2D	.	2f#X	-tu-
2DD	.	2f#i	-ra
=21	=21	=21	=21
1D	.	2.dd	Per-
.	.	8f#X	-der
.	.	8f#i	chi
=22	=22	=22	=22
[1E	.	2.g#X	non
.	.	4a	mi
=23	=23	=23	=23
1E]	.	1b	cu-
=24	=24	=24	=24
1AA	.	1a	-ra
=25	=25	=25	=25
1GG	.	8r	.
.	.	8b	E
.	.	8b	ri-
.	.	8b	-cu-
.	.	8.b	-sar
.	.	16b	quel
.	.	8b	che
.	.	8b	di
=26	=26	=26	=26
1C	.	2.cc	me
.	.	4g	per-
=27	=27	=27	=27
1FF	.	2a	-de-
.	.	2a	-i.
=28	=28	=28	=28
2EE	.	8g#X	Mi-
.	.	8g#i	-se-
.	.	8g#i	-ra-
.	.	2a	-te,
2AA	.	.	.
.	.	8r	.
=29	=29	=29	=29
2GG#X	.	8r	.
.	.	8b	Mi-
.	.	8b	-se-
.	.	8b	-ra
2AA	#	2cc#X	te,
=30	=30	=30	=30
2.BB	.	8r	.
.	.	8b	che
.	.	8b	per
.	.	8ccnXi	no-
.	.	8dd	-vel-
.	.	8g	-l'A-
4D	.	8a	-mo-
.	.	8a	-re
=31	=31	=31	=31
2BB	.	8dd	Per-
.	.	8cc	-di
.	.	4r	.
2C	.	2r	.
=32	=32	=32	=32
1D	.	1r	.
=33	=33	=33	=33
1GG	.	1g	re
=34	=34	=34	=34
1GG	.	8d	Ch'e-
.	.	8d	-ri
.	.	8d	più
.	.	8g	mi-
.	.	8g	-o
.	.	8g	che
.	.	8g	tu
.	.	8g	di
=35	=35	=35	=35
2FF	.	2.a	te
2EE	#	.	.
.	.	4b	non
=36	=36	=36	=36
1E	.	2g#X	se-
.	.	2g#i	-i;
=37	=37	=37	=37
4GG	.	8b	Il
.	.	8b	tuo
2D	.	4dd	già
.	.	8a	non
.	.	8gnXi	per
4D	.	4a	Di-
=38	=38	=38	=38
4C	.	4a	-o,
2E	.	8cc	<Il
.	.	8cc	tuo
.	.	4ee	già
4EE	.	8g#X	non
.	.	8f#X	per
=39	=39	=39	=39
2E	.	4g#X	Di-
.	.	4.g#i	-o>
[2BB	.	.	.
.	.	8b	Poi
.	.	8b	che
.	.	8cc	non
=40	=40	=40	=40
2BB]	.	2.dd	fu
2EE	.	.	.
.	.	4cc	mai
=41	=41	=41	=41
1E	.	1b	mi-
=42	=42	=42	=42
1AAl	.	1al	-o.
==	==	==	==
*-	*-	*-	*-
!!!system-decoration: [*]
!!!RDF**kern: i = editorial accidental
!!!RDF**kern: l = terminal long
!!!ENC: Emiliano Ricciardi
!!!END:
!!!EED: Ricciardi, Emiliano
!!!EEV: 2020/02/23
!!!YEC: Copyright 2018 Emiliano Ricciardi, All Rights Reserved
!!!ONB: Translated from MusicXML on 2020/02/23
!!@@BEGIN:	VERSEDATA
!!@SOLERTI:	433
!!@CATALOGNUM:	Trm0433
!!@LAST_MODIFIED: 2020/07/12
!!@ATTRIBUTION:	not secure
!!@TITLE:		Se tu mi lasci, perfida, tuo danno
!!@GENRE:		madrigale
!!@MANUSRC:	none
!!@PRINTSRC:	27, 70, 78, 141, 145, 166, 169
!!@@BEGIN:	VERSES
!!@ABOUTIT:	[Ad istanza di...]
!!@ABOUTEN:	[On behalf of...]
!!@EDITOR:	Solerti, Angelo
!!@EDITION_TITLE: Le Rime di Torquato Tasso
!!@EDITION_LOC:	Bologna
!!@EDITION_PUB:	Romagnoli-Dall’Acqua
!!@EDITION_DATE:  1898-1902
!!@EDITION_VOL:	2
!!@EDITION_PAGE:  467
!!@TRANSLATOR:	Emiliano Ricciardi and Amyrose McCue Gill
!!@VERSE:
!!	Se tu mi lasci, perfida, tuo danno:
!!	Non ti pensar che sia
!!	Misera senza te la vita mia.
!!	Misero ben sarei
!!	Se miseria i' stimassi e non ventura
!!	Perder chi non mi cura
!!	E ricovrar quel che di me perdei.
!!	Misera tu, che per novello amore
!!	Perdi quel fido core
!!	Ch'era più tuo che tu di te non sei;
!!	Ma il tuo già non perd'io
!!	Perché non fu mai mio.
!!@TVERSE:
!!	If you leave me, wicked lady, your loss:
!!	Do not think to yourself that
!!	Miserable without you will my life be.
!!	I would well be miserable
!!	If I were to deem [it] misery and not fortune
!!	To lose she who cares not for me
!!	And to recover that [part] of me which I lost.
!!	You [will be] miserable, as for a new love
!!	You lose that faithful heart
!!	That was more yours than you yourself are.
!!	But yours I am indeed not losing
!!	Because it was never mine.
!!@@END:		VERSES
!!@OTHER_CRIT_ED:   None
!!@ATTRIBUTION_ABOUT:	Not secure
!!		<br>
!!		This poem is attributed to Tasso only in a literary print that was not supervised by the poet and in reprints thereof (see Literary Sources).
!!@DATING:	In or before 1586
!!@DEDICATEE:
!!@COMMENTARY:
!!@@END:		VERSEDATA
!!@@BEGIN:	SETTING
!!@CATALOGNUM:	Trm0433j
!!@RIMETITLE:	Se tu mi lasci, perfida, tuo danno
!!@SETTINGTITLE: Se tu mi lasci, perfida e crudele
!!@SOLERTI:	433
!!@COMPOSER:	Saracini, Claudio
!!@PRINCEPSTITLE:	Terze musiche a una voce
!!@PRINCEPSLOC:	Venetia
!!@NORMLOC:	Venice
!!@NORMPUB:	Alessandro Vincenti
!!@NORMPUBSHORT:	A. Vincenzi
!!@PRINCEPSPUB:	Vincenti
!!@PRINCEPSYEAR:	1620
!!@PRINCEPSRISM:	S 912
!!@REPRINTS:	
!!@OCLEFS:	C1,F4
!!@OVOICES:	1 + bc
!!@EXTANTVOICES:	1 + bc
!!@PARTBOOKS:	
!!@EXTPARTBOOKS:	
!!@OMENSURATION:	C
!!@OKEYSIG:	-
!!@FINAL:	A
!!@TIMPEDITOR:	Ricciardi, Emiliano
!!@NOTE:		
!!@@END:		SETTING
